svgs/light/prescription-bottle.svg

<svg xmlns="http://www.w3.org/2000/svg" viewBox="0 0 384 512"><!-- Font Awesome Pro 6.0.0-alpha2 by @fontawesome - https://fontawesome.com License - https://fontawesome.com/license (Commercial License) --><path d="M336 160C327.164 160 320 167.162 320 176V448C320 465.672 305.674 480 288 480H96C78.326 480 64 465.672 64 448V416H144C152.801 416 160 408.799 160 400C160 391.199 152.801 384 144 384H64V320H144C152.801 320 160 312.799 160 304C160 295.199 152.801 288 144 288H64V224H144C152.801 224 160 216.799 160 208C160 199.199 152.801 192 144 192H64V176C64 167.162 56.836 160 48 160S32 167.162 32 176V448C32 483.199 60.801 512 96 512H288C323.199 512 352 483.199 352 448V176C352 167.162 344.836 160 336 160ZM352 0H32C14.326 0 0 14.326 0 32V96C0 113.672 14.326 128 32 128H352C369.674 128 384 113.672 384 96V32C384 14.326 369.674 0 352 0ZM352 96H32V32H352V96Z"/></svg>

<svg xmlns="http://www.w3.org/2000/svg" viewBox="0 0 384 512"><!--! Font Awesome Pro 6.0.0-alpha3 by @fontawesome - https://fontawesome.com License - https://fontawesome.com/license (Commercial License) --><path d="M336 160C327.2 160 320 167.2 320 176V448c0 17.67-14.33 32-32 32H96c-17.67 0-32-14.33-32-32v-32h80C152.8 416 160 408.8 160 400C160 391.2 152.8 384 144 384H64v-64h80C152.8 320 160 312.8 160 304C160 295.2 152.8 288 144 288H64V224h80C152.8 224 160 216.8 160 208C160 199.2 152.8 192 144 192H64V176C64 167.2 56.84 160 48 160S32 167.2 32 176V448c0 35.2 28.8 64 64 64h192c35.2 0 64-28.8 64-64V176C352 167.2 344.8 160 336 160zM352 0H32C14.33 0 0 14.33 0 32v64c0 17.67 14.33 32 32 32h320c17.67 0 32-14.33 32-32V32C384 14.33 369.7 0 352 0zM352 96H32V32h320V96z"/></svg>
